images/logo8.svg

<?xml version="1.0" encoding="UTF-8" standalone="no"?>
<svg width="150px" height="60px" viewBox="0 0 150 60" version="1.1" xmlns="http://www.w3.org/2000/svg" xmlns:xlink="http://www.w3.org/1999/xlink" xmlns:sketch="http://www.bohemiancoding.com/sketch/ns">
    <!-- Generator: Sketch 3.3.3 (12081) - http://www.bohemiancoding.com/sketch -->
    <title>logo8</title>
    <desc>Created with Sketch.</desc>
    <defs></defs>
    <g id="Page-1" stroke="none" stroke-width="1" fill="none" fill-rule="evenodd" sketch:type="MSPage">
        <g id="logo8" sketch:type="MSArtboardGroup" fill="#FFFFFF">
            <path d="M148.915804,37.6783209 C148.860559,37.8009227 148.786013,37.9091472 148.693052,38.0021079 C148.599304,38.0950686 148.490292,38.1675465 148.363652,38.21964 C148.237013,38.2717334 148.103185,38.2978294 147.962168,38.2978294 C147.671272,38.2978294 147.427644,38.1988617 147.230496,38.0021079 C147.033349,37.8049602 146.934775,37.5613322 146.934775,37.2708299 C146.934775,37.1298131 146.961265,36.9959851 147.013358,36.8693458 C147.065452,36.7427065 147.137535,36.6329065 147.230496,36.5399457 C147.323457,36.446985 147.431681,36.3724391 147.554283,36.3168006 C147.676885,36.2610635 147.813076,36.232998 147.962168,36.232998 C148.103185,36.232998 148.237013,36.2610635 148.363652,36.3168006 C148.490292,36.3724391 148.599304,36.446985 148.693052,36.5399457 C148.786013,36.6329065 148.860559,36.7427065 148.915804,36.8693458 C148.971935,36.9959851 149,37.1298131 149,37.2708299 C149,37.4199216 148.971935,37.5557191 148.915804,37.6783209 L148.915804,37.6783209 Z M142.995169,36.0098529 C142.332332,36.6946505 141.539802,37.2191303 140.617383,37.5833907 C139.694965,37.9480449 138.671609,38.1303228 137.548891,38.1303228 L131.790052,38.1303228 L131.790052,22.338026 L137.548891,22.338026 C138.671609,22.338026 139.694965,22.5207963 140.617383,22.8849582 C141.539802,23.2496124 142.332332,23.7740922 142.995169,24.458496 C143.657121,25.1432936 144.16998,25.9727516 144.534635,26.9472638 C144.899289,27.9221699 145.081961,29.0160342 145.081961,30.2285613 C145.081961,31.4490649 144.899289,32.546179 144.534635,33.521085 C144.16998,34.4959911 143.657121,35.3254491 142.995169,36.0098529 L142.995169,36.0098529 Z M143.44146,27.282277 C143.136186,26.4191404 142.706637,25.6902258 142.152023,25.0948438 C141.597509,24.4997571 140.929944,24.0457857 140.148542,23.7332249 C139.368026,23.4207626 138.500951,23.2644822 137.548891,23.2644822 L132.939259,23.2644822 L132.939259,37.2038666 L137.548891,37.2038666 C138.500951,37.2038666 139.368026,37.0476847 140.148542,36.7351239 C140.929944,36.422957 141.597509,35.9689856 142.152023,35.3735051 C142.706637,34.7785169 143.136186,34.0492084 143.44146,33.1860719 C143.746044,32.3230338 143.899075,31.3372954 143.899075,30.2285613 C143.899075,29.1274098 143.746044,28.145315 143.44146,27.282277 L143.44146,27.282277 Z M125.528693,22.338026 L126.6779,22.338026 L126.6779,38.1303228 L125.528693,38.1303228 L125.528693,22.338026 L125.528693,22.338026 Z M122.259015,38.1303228 L121.265301,38.1303228 C121.145948,38.1303228 121.044125,38.1078704 120.958353,38.0633596 C120.872679,38.0185533 120.789271,37.9444013 120.707536,37.8402144 L115.651516,31.4338997 C115.524975,31.2704306 115.389473,31.1550175 115.244419,31.0880543 C115.099364,31.0211895 114.874151,30.9875109 114.568878,30.9875109 L112.50444,30.9875109 L112.50444,38.1303228 L111.365671,38.1303228 L111.365671,22.338026 L115.395086,22.338026 C117.217471,22.338026 118.57909,22.6898785 119.479844,23.3926971 C120.37981,24.0959097 120.830138,25.1281284 120.830138,26.4900427 C120.830138,27.0927119 120.725951,27.6432876 120.517577,28.1417699 C120.309302,28.6402522 120.009543,29.0773843 119.619285,29.4527724 C119.228141,29.8286529 118.757724,30.1375701 118.207148,30.3792286 C117.656671,30.6212811 117.035587,30.779531 116.343994,30.8536829 C116.521841,30.9654524 116.682159,31.1141502 116.823176,31.3000717 L122.259015,38.1303228 L122.259015,38.1303228 Z M117.130123,29.8884274 C117.684638,29.7209208 118.153479,29.4808379 118.536548,29.1683756 C118.919617,28.8558148 119.212188,28.4803282 119.412487,28.0411281 C119.613672,27.6024204 119.713821,27.1075817 119.713821,26.5570059 C119.713821,25.433402 119.346016,24.6000051 118.609519,24.0570119 C117.872234,23.5137233 116.800723,23.2420298 115.395086,23.2420298 L112.50444,23.2420298 L112.50444,30.1392442 L115.250032,30.1392442 C115.948911,30.1392442 116.576396,30.0554416 117.130123,29.8884274 L117.130123,29.8884274 Z M104.424044,37.8570537 C103.939939,38.0021079 103.419891,38.1134835 102.861339,38.191673 C102.303476,38.2697639 101.693618,38.3090556 101.030879,38.3090556 C99.8928974,38.3090556 98.8527022,38.117521 97.9118685,37.734058 C96.9702471,37.3509888 96.1632415,36.8076018 95.490064,36.1047831 C94.8160986,35.4015705 94.2935883,34.5517282 93.9217454,33.5543697 C93.5499024,32.5574051 93.3639809,31.4490649 93.3639809,30.2285613 C93.3639809,29.0084516 93.5499024,27.901687 93.9217454,26.908366 C94.2935883,25.915045 94.8217117,25.0667783 95.5069033,24.3639596 C96.191307,23.6607471 97.0223406,23.1177539 98.0007918,22.7342909 C98.9793415,22.3512217 100.07488,22.1596871 101.288195,22.1596871 C101.890766,22.1596871 102.446954,22.2005544 102.956663,22.2823874 C103.465584,22.3645159 103.939939,22.4850497 104.379139,22.6449737 C104.81834,22.8052916 105.2278,23.0024393 105.606832,23.2364167 C105.98675,23.4707881 106.350518,23.740906 106.700795,24.0457857 L106.39946,24.5366854 C106.332103,24.6484549 106.239142,24.704192 106.120578,24.704192 C106.053221,24.704192 105.989901,24.6893222 105.930619,24.6596811 C105.819243,24.6147764 105.65735,24.5105894 105.444938,24.3471203 C105.233413,24.1836512 104.946554,24.0121071 104.585938,23.8338667 C104.224435,23.655134 103.772433,23.49521 103.229932,23.3537994 C102.686545,23.2123887 102.027843,23.1418804 101.254516,23.1418804 C100.227911,23.1418804 99.3014544,23.3053495 98.4752461,23.6326816 C97.6498256,23.9605061 96.9446435,24.4288549 96.3603892,25.0391067 C95.7761349,25.6489646 95.3265949,26.3931429 95.0099966,27.2710508 C94.6934968,28.1489586 94.5356408,29.1350909 94.5356408,30.2285613 C94.5356408,31.3444841 94.6958602,32.3454862 95.0156097,33.2309766 C95.3353592,34.1165656 95.7842099,34.8658646 96.3603892,35.4796615 C96.9365686,36.0935569 97.6289488,36.5639737 98.4359544,36.8914043 C99.2437478,37.2191303 100.134162,37.3825994 101.109462,37.3825994 C101.651963,37.3825994 102.147294,37.3545339 102.593584,37.2988953 C103.039973,37.2431583 103.455145,37.1594542 103.838214,37.0476847 C104.221283,36.9362106 104.585938,36.8004131 104.932079,36.6404891 C105.27753,36.4806636 105.625345,36.2999613 105.975524,36.09917 L105.975524,31.8470039 L102.939824,31.8470039 C102.857301,31.8470039 102.789156,31.8209079 102.733025,31.7688144 C102.676993,31.716721 102.649715,31.6570449 102.649715,31.5901801 L102.649715,30.9654524 L107.013355,30.9654524 L107.013355,36.5788435 C106.61906,36.854476 106.209501,37.0996797 105.785565,37.3157346 C105.361628,37.5316911 104.907263,37.7119995 104.424044,37.8570537 L104.424044,37.8570537 Z M87.9393671,37.9964948 C87.7389698,37.9071777 87.5450718,37.7436101 87.3591503,37.5052012 L79.692154,27.8179829 C79.7146064,28.1009026 79.7330213,28.3777169 79.7474972,28.6494104 C79.7626624,28.9211039 79.7699496,29.1759582 79.7699496,29.4139731 L79.7699496,38.1303228 L76.4441412,38.1303228 L76.4441412,21.8691848 L78.4307831,21.8691848 C78.5942522,21.8691848 78.7321177,21.8768659 78.8434934,21.8916372 C78.9556568,21.9069009 79.0559047,21.9345724 79.144828,21.9754397 C79.234539,22.016307 79.3195233,22.0740135 79.4020456,22.1485594 C79.4837802,22.2230068 79.5767409,22.3232547 79.6809279,22.4497955 L87.4039566,32.2152033 C87.3743155,31.9026425 87.3518631,31.5997323 87.3366979,31.3056848 C87.322222,31.0119328 87.3142455,30.7346262 87.3142455,30.4741589 L87.3142455,21.8691848 L90.6408417,21.8691848 L90.6408417,38.1303228 L88.6766522,38.1303228 C88.3856575,38.1303228 88.1404538,38.085812 87.9393671,37.9964948 L87.9393671,37.9964948 Z M63.8333863,21.8691848 L74.3020066,21.8691848 L74.3020066,24.7710568 L67.6279375,24.7710568 L67.6279375,28.5657064 L72.7393011,28.5657064 L72.7393011,31.3557103 L67.6279375,31.3557103 L67.6279375,35.2284509 L74.3020066,35.2284509 L74.3020066,38.1303228 L63.8333863,38.1303228 L63.8333863,21.8691848 L63.8333863,21.8691848 Z M59.7046098,35.825507 C58.9681126,36.5511719 58.0809481,37.116519 57.0431162,37.5220405 C56.0053829,37.9275621 54.8537135,38.1303228 53.5891914,38.1303228 L47.2718,38.1303228 L47.2718,21.8691848 L53.5891914,21.8691848 C54.8537135,21.8691848 56.0053829,22.0740135 57.0431162,22.4830802 C58.0809481,22.8926392 58.9681126,23.4579863 59.7046098,24.1796137 C60.4411071,24.9013397 61.0124611,25.7587646 61.4179827,26.7520856 C61.8235042,27.7454066 62.026265,28.8261737 62.026265,29.99419 C62.026265,31.1697888 61.8235042,32.2544949 61.4179827,33.247422 C61.0124611,34.240743 60.4411071,35.1002359 59.7046098,35.825507 L59.7046098,35.825507 Z M57.8517959,27.8179829 C57.643422,27.1708029 57.3444508,26.6219012 56.9534052,26.1718688 C56.5631473,25.721541 56.0846555,25.3756955 55.5197024,25.1337415 C54.9539614,24.892083 54.3104249,24.7710568 53.5891914,24.7710568 L51.0663511,24.7710568 L51.0663511,35.2284509 L53.5891914,35.2284509 C54.3104249,35.2284509 54.9539614,35.1078185 55.5197024,34.8658646 C56.0846555,34.624206 56.5631473,34.2780651 56.9534052,33.8280327 C57.3444508,33.3776064 57.643422,32.8290987 57.8517959,32.1815247 C58.0601698,31.5344431 58.1643567,30.8051346 58.1643567,29.99419 C58.1643567,29.1907295 58.0601698,28.4650645 57.8517959,27.8179829 L57.8517959,27.8179829 Z M35.6867645,21.8691848 L39.4589617,21.8691848 L39.4589617,35.1170752 L45.4862447,35.1170752 L45.4862447,38.1303228 L35.6867645,38.1303228 L35.6867645,21.8691848 L35.6867645,21.8691848 Z M31.557988,35.9148241 C30.820703,36.6625476 29.9335384,37.2487714 28.8958051,37.6727078 C27.8579732,38.0966443 26.7064024,38.3090556 25.4417818,38.3090556 C24.1771612,38.3090556 23.0239162,38.0966443 21.9821454,37.6727078 C20.9403745,37.2487714 20.0491725,36.6625476 19.3087362,35.9148241 C18.5682015,35.1671992 17.9960597,34.2872234 17.5905381,33.2754875 C17.1850166,32.2637516 16.9822558,31.1697888 16.9822558,29.99419 C16.9822558,28.8188865 17.1850166,27.7250222 17.5905381,26.7132863 C17.9960597,25.701452 18.5682015,24.8231502 19.3087362,24.0790704 C20.0491725,23.3353845 20.9403745,22.7511301 21.9821454,22.3267998 C23.0239162,21.9028634 24.1771612,21.6909444 25.4417818,21.6909444 C26.7064024,21.6909444 27.8579732,21.9049314 28.8958051,22.3324129 C29.9335384,22.7603868 30.820703,23.3466107 31.557988,24.0902966 C32.2944852,24.8343764 32.8650515,25.7122843 33.270573,26.7241186 C33.6760946,27.7362484 33.8788553,28.8261737 33.8788553,29.99419 C33.8788553,31.1697888 33.6760946,32.2637516 33.270573,33.2754875 C32.8650515,34.2872234 32.2944852,35.1671992 31.557988,35.9148241 L31.557988,35.9148241 Z M29.7051741,27.823596 C29.4968002,27.1800595 29.1971397,26.6350969 28.8067834,26.1887081 C28.4157377,25.7419254 27.9381322,25.4002158 27.3722928,25.1617085 C26.8073396,24.9236936 26.1630153,24.8047353 25.4417818,24.8047353 C24.7124732,24.8047353 24.0633236,24.9236936 23.494333,25.1617085 C22.9253424,25.4002158 22.4453735,25.7419254 22.0542293,26.1887081 C21.6639715,26.6350969 21.3643109,27.1800595 21.1559371,27.823596 C20.9475632,28.4671325 20.8433763,29.1907295 20.8433763,29.99419 C20.8433763,30.8051346 20.9475632,31.5328675 21.1559371,32.176404 C21.3643109,32.819842 21.6639715,33.3648046 22.0542293,33.8111935 C22.4453735,34.2575823 22.9253424,34.5982085 23.494333,34.832186 C24.0633236,35.0665574 24.7124732,35.1840385 25.4417818,35.1840385 C26.1630153,35.1840385 26.8073396,35.0665574 27.3722928,34.832186 C27.9381322,34.5982085 28.4157377,34.2575823 28.8067834,33.8111935 C29.1971397,33.3648046 29.4968002,32.819842 29.7051741,32.176404 C29.9135479,31.5328675 30.0177349,30.8051346 30.0177349,29.99419 C30.0177349,29.1907295 29.9135479,28.4671325 29.7051741,27.823596 L29.7051741,27.823596 Z M14.1749202,25.9094319 C14.029866,25.9988476 13.87201,26.04326 13.7013522,26.04326 C13.4777146,26.04326 13.2469869,25.9692065 13.0089719,25.8201148 C12.7115763,25.6417759 12.4303307,25.4875635 12.1667121,25.3568867 C11.9022073,25.2270962 11.6320894,25.1208412 11.3572447,25.0391067 C11.0816121,24.9573721 10.7915037,24.8976961 10.4869194,24.8604724 C10.1816458,24.8231502 9.83944391,24.8047353 9.46031376,24.8047353 C8.75276829,24.8047353 8.1172083,24.9293067 7.55146735,25.1785478 C6.98562792,25.4277889 6.50398493,25.7796414 6.10653836,26.2332189 C5.70820553,26.6871904 5.40125782,27.232153 5.18569526,27.8681069 C4.96934489,28.5043562 4.86200674,29.2131819 4.86200674,29.99419 C4.86200674,30.8576219 4.98057108,31.6237602 5.21937383,32.2933927 C5.45738878,32.9629267 5.78600106,33.5286676 6.20668781,33.9899262 C6.62658675,34.4510864 7.12585684,34.8029388 7.70213465,35.0445974 C8.2791018,35.2861574 8.90904869,35.4071836 9.59424026,35.4071836 C10.1142886,35.4071836 10.5759411,35.3626728 10.978213,35.2733556 C11.379697,35.1840385 11.7587287,35.0649818 12.1161943,34.9158901 L12.1161943,32.4496731 L10.5093718,32.4496731 C10.270569,32.4496731 10.0846476,32.3863534 9.95081954,32.2597141 C9.81699152,32.1334687 9.75042218,31.9736432 9.75042218,31.7800406 L9.75042218,29.7040815 L15.5317137,29.7040815 L15.5317137,36.5680112 C15.1141782,36.8728909 14.6814774,37.1354262 14.2310511,37.3545339 C13.7807233,37.574134 13.3006559,37.7548363 12.7917353,37.8959515 C12.2820268,38.0373621 11.7387382,38.141549 11.1616726,38.2084138 C10.5854932,38.275377 9.96608322,38.3090556 9.30413184,38.3090556 C8.11317081,38.3090556 7.01211779,38.0987122 5.99988955,37.6783209 C4.98854758,37.2580281 4.11182143,36.6778112 3.37217299,35.9372765 C2.63163827,35.1972342 2.05142144,34.3189324 1.63073469,33.303553 C1.21083575,32.2877796 1,31.1846586 1,29.99419 C1,28.7816628 1.20118516,27.6673156 1.60266921,26.6515423 C2.00494107,25.6361628 2.5795448,24.7598306 3.32726823,24.0233333 C4.07499165,23.2869346 4.97899547,22.7139065 6.03918122,22.3047413 C7.09946544,21.8956747 8.28471489,21.6909444 9.59424026,21.6909444 C10.270569,21.6909444 10.9069168,21.746583 11.5022989,21.858451 C12.0977794,21.9698266 12.646681,22.1224634 13.148413,22.3159675 C13.6508343,22.5095701 14.1100249,22.7399039 14.5267727,23.00756 C14.9435204,23.2757084 15.3153634,23.5658168 15.6430894,23.8782791 L14.549225,25.5412326 C14.4450381,25.697513 14.3208607,25.8201148 14.1749202,25.9094319 L14.1749202,25.9094319 Z" id="Shape" sketch:type="MSShapeGroup"></path>
        </g>
    </g>
</svg>

<svg width="150" height="60" xmlns="http://www.w3.org/2000/svg"><g id="Page-1" stroke="none" stroke-width="1" fill="none" fill-rule="evenodd"><g id="logo8" fill="#FFF"><path d="M148.916 37.678c-.055.123-.13.231-.223.324a1.045 1.045 0 01-.73.296.995.995 0 01-.733-.296.993.993 0 01-.295-.731 1.045 1.045 0 01.295-.731c.093-.093.202-.168.324-.223a.975.975 0 01.408-.084c.141 0 .275.028.402.084a1.061 1.061 0 01.636.954.965.965 0 01-.084.407zm-5.92-1.668a6.677 6.677 0 01-2.379 1.573c-.922.365-1.945.547-3.068.547h-5.759V22.338h5.759c1.123 0 2.146.183 3.068.547.923.365 1.715.89 2.378 1.573.662.685 1.175 1.515 1.54 2.49.364.974.547 2.068.547 3.28 0 1.221-.183 2.318-.547 3.293-.365.975-.878 1.804-1.54 2.489zm.445-8.728c-.305-.863-.734-1.592-1.289-2.187a5.483 5.483 0 00-2.003-1.362c-.781-.312-1.648-.469-2.6-.469h-4.61v13.94h4.61c.952 0 1.819-.156 2.6-.469a5.473 5.473 0 002.003-1.361c.555-.595.984-1.325 1.29-2.188.304-.863.457-1.849.457-2.957 0-1.102-.153-2.084-.458-2.947zm-17.912-4.944h1.149V38.13h-1.15V22.338zm-3.27 15.792h-.994a.657.657 0 01-.307-.067.803.803 0 01-.25-.223l-5.056-6.406a1.123 1.123 0 00-.408-.346c-.145-.067-.37-.1-.675-.1h-2.065v7.142h-1.138V22.338h4.03c1.821 0 3.183.352 4.084 1.055.9.703 1.35 1.735 1.35 3.097a4.25 4.25 0 01-.312 1.652 3.873 3.873 0 01-.899 1.31 4.796 4.796 0 01-1.412.927c-.55.242-1.171.4-1.863.475.178.111.338.26.48.446l5.435 6.83zm-5.129-8.242a4.038 4.038 0 001.407-.72c.383-.312.675-.688.875-1.127.202-.439.302-.933.302-1.484 0-1.124-.368-1.957-1.104-2.5-.738-.543-1.81-.815-3.215-.815h-2.89v6.897h2.745c.699 0 1.326-.084 1.88-.25zm-12.706 7.97c-.484.144-1.004.255-1.563.334-.558.078-1.167.117-1.83.117-1.138 0-2.178-.191-3.12-.575a6.918 6.918 0 01-2.42-1.63c-.675-.702-1.197-1.552-1.57-2.55-.371-.997-.557-2.105-.557-3.325 0-1.22.186-2.327.558-3.32.372-.994.9-1.842 1.585-2.545.684-.703 1.515-1.246 2.494-1.63.978-.383 2.074-.574 3.287-.574.603 0 1.159.04 1.669.122a7.77 7.77 0 011.422.363c.44.16.849.357 1.228.591.38.235.744.505 1.094.81l-.302.49c-.067.112-.16.168-.278.168a.419.419 0 01-.19-.044c-.112-.045-.274-.15-.486-.313a5.19 5.19 0 00-.86-.513 7.185 7.185 0 00-1.355-.48c-.543-.142-1.202-.212-1.975-.212-1.027 0-1.954.163-2.78.49a5.9 5.9 0 00-2.115 1.407c-.584.61-1.033 1.354-1.35 2.232-.317.878-.474 1.864-.474 2.958 0 1.115.16 2.116.48 3.002.32.886.768 1.635 1.344 2.249a5.796 5.796 0 002.076 1.411c.808.328 1.698.492 2.673.492.543 0 1.038-.028 1.485-.084a7.8 7.8 0 002.338-.658c.346-.16.693-.341 1.044-.542v-4.252h-3.036a.291.291 0 01-.207-.078.237.237 0 01-.083-.179v-.625h4.363v5.614c-.394.275-.803.52-1.227.737a8.166 8.166 0 01-1.362.541zm-16.485.138c-.2-.089-.394-.252-.58-.49l-7.667-9.688c.023.283.041.56.055.831.016.272.023.527.023.765v8.716h-3.326V21.87h1.987c.163 0 .301.007.412.022.113.015.213.043.302.083.09.041.175.099.257.174.082.074.175.174.279.3l7.723 9.766a20.24 20.24 0 01-.067-.91 16.98 16.98 0 01-.023-.83v-8.606h3.327V38.13h-1.964c-.291 0-.537-.044-.738-.134zM63.833 21.87h10.469v2.902h-6.674v3.795h5.111v2.79h-5.111v3.872h6.674v2.902H63.833V21.87zm-4.128 13.957c-.737.725-1.624 1.29-2.662 1.696-1.038.406-2.19.608-3.454.608h-6.317V21.87h6.317c1.265 0 2.416.204 3.454.613 1.038.41 1.925.975 2.662 1.697a7.554 7.554 0 011.713 2.572c.406.993.608 2.074.608 3.242 0 1.176-.202 2.26-.608 3.253a7.612 7.612 0 01-1.713 2.579zm-1.853-8.008c-.209-.647-.508-1.196-.899-1.646a3.901 3.901 0 00-1.433-1.038c-.566-.242-1.21-.363-1.93-.363h-2.524v10.457h2.523c.721 0 1.365-.12 1.93-.362a3.9 3.9 0 001.434-1.038c.391-.45.69-.999.899-1.646.208-.648.312-1.377.312-2.188 0-.803-.104-1.529-.312-2.176zM35.687 21.87h3.772v13.248h6.027v3.013h-9.8V21.87zm-4.129 14.046a7.865 7.865 0 01-2.662 1.758c-1.038.424-2.19.636-3.454.636-1.265 0-2.418-.212-3.46-.636a7.904 7.904 0 01-2.673-1.758 7.86 7.86 0 01-1.718-2.64c-.406-1.011-.609-2.105-.609-3.28 0-1.176.203-2.27.609-3.282a7.803 7.803 0 011.718-2.634 7.957 7.957 0 012.673-1.752c1.042-.424 2.195-.636 3.46-.636 1.264 0 2.416.214 3.454.641a7.986 7.986 0 012.662 1.758 7.848 7.848 0 011.713 2.634 8.71 8.71 0 01.608 3.27c0 1.176-.203 2.27-.608 3.281a7.908 7.908 0 01-1.713 2.64zm-1.853-8.091c-.208-.644-.508-1.189-.898-1.635a3.878 3.878 0 00-1.435-1.027c-.565-.238-1.209-.357-1.93-.357-.73 0-1.379.119-1.948.357a3.873 3.873 0 00-1.44 1.027c-.39.446-.69.991-.898 1.635-.208.643-.313 1.367-.313 2.17 0 .811.105 1.539.313 2.182.208.644.508 1.189.898 1.635.391.447.871.787 1.44 1.021.57.235 1.218.352 1.948.352.721 0 1.365-.117 1.93-.352a3.817 3.817 0 001.435-1.02c.39-.447.69-.992.898-1.636.209-.643.313-1.37.313-2.182 0-.803-.104-1.527-.313-2.17zm-15.53-1.915a.885.885 0 01-.474.134c-.223 0-.454-.074-.692-.223a12.07 12.07 0 00-.842-.463 5.205 5.205 0 00-1.68-.497 8.522 8.522 0 00-1.027-.055c-.707 0-1.343.124-1.909.374a4.085 4.085 0 00-1.444 1.054 4.765 4.765 0 00-.921 1.635c-.217.636-.324 1.345-.324 2.126 0 .864.119 1.63.357 2.3.238.669.567 1.235.988 1.696.42.461.919.813 1.495 1.055a4.848 4.848 0 001.892.362c.52 0 .982-.044 1.384-.134.402-.089.78-.208 1.138-.357V32.45H10.51c-.238 0-.424-.064-.558-.19a.63.63 0 01-.2-.48v-2.076h5.78v6.864a8.314 8.314 0 01-2.74 1.328 10.7 10.7 0 01-1.63.312c-.576.067-1.195.101-1.857.101-1.19 0-2.292-.21-3.304-.63a8.02 8.02 0 01-2.628-1.742 8.015 8.015 0 01-1.741-2.633C1.21 32.288 1 31.184 1 29.994c0-1.212.201-2.327.603-3.342a7.537 7.537 0 011.724-2.629c.748-.736 1.652-1.31 2.712-1.718 1.06-.41 2.246-.614 3.555-.614a10.4 10.4 0 011.908.167 9.346 9.346 0 011.646.458 7.462 7.462 0 012.495 1.562l-1.094 1.663a1.207 1.207 0 01-.374.368z" id="Shape"/></g></g></svg>
